src/icons/scalable/actions/user-trash-symbolic.svg

<?xml version="1.0" encoding="UTF-8"?>
<svg height="16px" viewBox="0 0 16 16" width="16px" xmlns="http://www.w3.org/2000/svg">
    <g fill="#2e3436">
        <path d="m 1 3 h 14 c 0.550781 0 1 0.449219 1 1 s -0.449219 1 -1 1 h -14 c -0.550781 0 -1 -0.449219 -1 -1 s 0.449219 -1 1 -1 z m 0 0"/>
        <path d="m 4 4 v -1.5 c 0 -1.386719 1.113281 -2.5 2.5 -2.5 h 2.980469 c 1.382812 0 2.5 1.113281 2.5 2.5 v 1.5 h -2 v -1.5 c 0 -0.269531 -0.230469 -0.5 -0.5 -0.5 h -2.980469 c -0.269531 0 -0.5 0.230469 -0.5 0.5 v 1.5 z m 0 0"/>
        <path d="m 4 4 v 9 c 0 0.546875 0.453125 1 1 1 h 6 c 0.546875 0 1 -0.453125 1 -1 v -9 h 2 v 9 c 0 1.660156 -1.339844 3 -3 3 h -6 c -1.660156 0 -3 -1.339844 -3 -3 v -9 z m 0 0"/>
        <path d="m 7 7 v 5 c 0 0.277344 -0.222656 0.5 -0.5 0.5 s -0.5 -0.222656 -0.5 -0.5 v -5 c 0 -0.277344 0.222656 -0.5 0.5 -0.5 s 0.5 0.222656 0.5 0.5 z m 0 0"/>
        <path d="m 10 7 v 5 c 0 0.277344 -0.222656 0.5 -0.5 0.5 s -0.5 -0.222656 -0.5 -0.5 v -5 c 0 -0.277344 0.222656 -0.5 0.5 -0.5 s 0.5 0.222656 0.5 0.5 z m 0 0"/>
    </g>
</svg>

<svg xmlns="http://www.w3.org/2000/svg" width="16" height="16" viewBox="0 0 16 16"><g fill="#2e3436"><path d="M1 3h14c.55 0 1 .45 1 1s-.45 1-1 1H1c-.55 0-1-.45-1-1s.45-1 1-1m0 0"/><path d="M4 4V2.5C4 1.113 5.113 0 6.5 0h2.98c1.383 0 2.5 1.113 2.5 2.5V4h-2V2.5c0-.27-.23-.5-.5-.5H6.5c-.27 0-.5.23-.5.5V4zm0 0v9c0 .547.453 1 1 1h6c.547 0 1-.453 1-1V4h2v9c0 1.66-1.34 3-3 3H5c-1.66 0-3-1.34-3-3V4zm0 0"/><path d="M7 7v5a.499.499 0 1 1-1 0V7a.499.499 0 1 1 1 0m3 0v5a.499.499 0 1 1-1 0V7a.499.499 0 1 1 1 0m0 0"/></g></svg>
